img/svg/stone-shape-3.svg

<svg width="36" height="36" viewBox="0 0 36 36" fill="none" xmlns="http://www.w3.org/2000/svg">
<circle cx="18" cy="18" r="15.5" stroke="#A39D94"/>
<rect x="14.1501" y="8.65382" width="14.295" height="14.295" transform="rotate(22.6153 14.1501 8.65382)" stroke="#A39D94"/>
<rect x="27.3307" y="21.8873" width="14.295" height="14.295" transform="rotate(157.615 27.3307 21.8873)" stroke="#A39D94"/>
<path d="M18 2.7757L22.0618 7.59337L22.2297 7.79254L22.4892 7.76904L28.8028 7.19721L28.231 13.5108L28.2075 13.7703L28.4066 13.9382L33.2243 18L28.4066 22.0618L28.2075 22.2297L28.231 22.4892L28.8028 28.8028L22.4892 28.231L22.2297 28.2075L22.0618 28.4066L18 33.2243L13.9382 28.4066L13.7703 28.2075L13.5108 28.231L7.19721 28.8028L7.76904 22.4892L7.79254 22.2297L7.59337 22.0618L2.7757 18L7.59337 13.9382L7.79254 13.7703L7.76904 13.5108L7.19721 7.19721L13.5108 7.76904L13.7703 7.79254L13.9382 7.59337L18 2.7757Z" stroke="#A39D94"/>
<path d="M8.84615 21.7692L4 23.7931M8.82759 14.1379L4 12.2069M14.1379 8.82759L12.2069 4M21.8621 8.82759L23.7931 4M27.1724 14.1379L32 12.2069M27.1724 21.8621L32 23.7931M21.8621 27.1724L23.7931 32M14.1379 27.1724L12.2069 32" stroke="#A39D94"/>
</svg>

<svg width="36" height="36" viewBox="0 0 36 36" fill="none" xmlns="http://www.w3.org/2000/svg"><circle cx="18" cy="18" r="15.5" stroke="#A39D94"/><path stroke="#A39D94" d="M14.15 8.654l13.196 5.497-5.497 13.196L8.653 21.85z"/><path stroke="#A39D94" d="M27.33 21.888l-13.217 5.444-5.444-13.218L21.887 8.67z"/><path d="M18 2.776l4.062 4.817.168.2.26-.024 6.313-.572-.572 6.314-.024.26.2.167L33.224 18l-4.817 4.062-.2.168.024.26.572 6.313-6.314-.572-.26-.024-.167.2L18 33.224l-4.062-4.817-.168-.2-.26.024-6.313.572.572-6.314.024-.26-.2-.167L2.776 18l4.817-4.062.2-.168-.024-.26-.572-6.313 6.314.572.26.024.167-.2L18 2.776zM8.846 21.77L4 23.792m4.828-9.655L4 12.207m10.138-3.38L12.207 4m9.655 4.828L23.793 4m3.38 10.138L32 12.207m-4.828 9.655L32 23.793m-10.138 3.38L23.793 32m-9.655-4.828L12.207 32" stroke="#A39D94"/></svg>
